; generated by Slic3r 0.9.9-dev on 2013-05-02 at 21:13:56

; layer_height = 0.4
; perimeters = 2
; top_solid_layers = 2
; bottom_solid_layers = 2
; fill_density = 0.3
; perimeter_speed = 50
; infill_speed = 50
; travel_speed = 130
; nozzle_diameter = 0.60
; filament_diameter = 3
; extrusion_multiplier = 1
; perimeters extrusion width = 0.74mm
; infill extrusion width = 0.74mm
; solid infill extrusion width = 0.74mm
; top infill extrusion width = 0.74mm

G21 ; set units to millimeters
M190 S57 ; wait for bed temperature to be reached
M104 S170 ; set temperature
;M107;
M106 S100; fire up the fan ('cause the one is too weak below 100)
G28 Y0  ; home Y axis
G28 X0  ; home X axis
G28 Z0  ; home Z axis
M106 S50; slow it down
M109 S170 ; wait for temperature to be reached
G90 ; use absolute coordinates
G92 E0
M82 ; use absolute distances for extrusion
M106 S51
G1 F900.000 E-1.00000
G1 Z0.800
G92 E0
G1 X65.070 Y55.640 F7800.000
G1 Z0.400
G1 F900.000 E1.00000
G1 X65.680 Y55.010 F900.000 E1.03508
G1 X66.120 Y54.630 E1.05833
G1 X66.590 Y54.280 E1.08177
G1 X67.340 Y53.830 E1.11676
G1 X68.140 Y53.460 E1.15201
G1 X68.690 Y53.270 E1.17529
G1 X69.540 Y53.060 E1.21031
G1 X70.120 Y52.970 E1.23379
G1 X70.420 Y52.940 E1.24585
G1 X71.000 Y52.920 E1.26906
G1 X89.000 Y52.920 E1.98906
G1 X89.580 Y52.940 E2.01228
G1 X90.170 Y53.010 E2.03604
G1 X90.740 Y53.120 E2.05926
G1 X91.310 Y53.270 E2.08284
G1 X91.860 Y53.460 E2.10612
G1 X92.660 Y53.830 E2.14137
G1 X93.160 Y54.120 E2.16449
G1 X93.650 Y54.450 E2.18812
G1 X94.110 Y54.820 E2.21174
G1 X94.740 Y55.430 E2.24681
G1 X95.300 Y56.100 E2.28174
G1 X95.630 Y56.590 E2.30537
G1 X95.920 Y57.090 E2.32849
G1 X96.290 Y57.890 E2.36375
G1 X96.480 Y58.440 E2.38703
G1 X96.690 Y59.290 E2.42205
G1 X96.810 Y60.170 E2.45757
G1 X96.830 Y60.750 E2.48079
G1 X96.830 Y119.250 E4.82079
G1 X96.810 Y119.830 E4.84400
G1 X96.740 Y120.420 E4.86777
G1 X96.630 Y120.990 E4.89099
G1 X96.480 Y121.560 E4.91456
G1 X96.290 Y122.110 E4.93784
G1 X95.920 Y122.910 E4.97310
G1 X95.630 Y123.410 E4.99622
G1 X95.300 Y123.900 E5.01985
G1 X94.930 Y124.360 E5.04346
G1 X94.320 Y124.990 E5.07854
G1 X93.650 Y125.550 E5.11347
G1 X93.160 Y125.880 E5.13710
G1 X92.660 Y126.170 E5.16022
G1 X91.860 Y126.540 E5.19548
G1 X91.030 Y126.810 E5.23039
G1 X90.460 Y126.940 E5.25377
G1 X89.580 Y127.060 E5.28930
G1 X89.000 Y127.080 E5.31251
G1 X71.000 Y127.080 E6.03251
G1 X70.420 Y127.060 E6.05573
G1 X69.830 Y126.990 E6.07949
G1 X68.970 Y126.810 E6.11464
G1 X68.140 Y126.540 E6.14955
G1 X67.600 Y126.300 E6.17319
G1 X67.090 Y126.030 E6.19627
G1 X66.590 Y125.720 E6.21980
G1 X66.120 Y125.370 E6.24324
G1 X65.680 Y124.990 E6.26650
G1 X65.260 Y124.570 E6.29026
G1 X64.700 Y123.900 E6.32518
G1 X64.370 Y123.410 E6.34881
G1 X64.080 Y122.910 E6.37194
G1 X63.710 Y122.110 E6.40719
G1 X63.520 Y121.560 E6.43047
G1 X63.310 Y120.710 E6.46549
G1 X63.190 Y119.830 E6.50102
G1 X63.170 Y119.250 E6.52423
G1 X63.170 Y60.750 E8.86423
G1 X63.190 Y60.170 E8.88744
G1 X63.260 Y59.580 E8.91121
G1 X63.440 Y58.720 E8.94635
G1 X63.610 Y58.160 E8.96976
G1 X63.950 Y57.350 E9.00490
G1 X64.220 Y56.840 E9.02798
G1 X64.530 Y56.340 E9.05152
G1 X65.002 Y55.722 E9.08264
G1 X65.410 Y56.340 F7800.000
G1 X65.960 Y55.710 F900.000 E9.11609
G1 X66.590 Y55.160 E9.14955
G1 X67.040 Y54.830 E9.17187
G1 X67.520 Y54.540 E9.19430
G1 X68.020 Y54.280 E9.21684
G1 X68.800 Y53.980 E9.25027
G1 X69.610 Y53.770 E9.28374
G1 X70.160 Y53.680 E9.30603
G1 X70.720 Y53.630 E9.32852
G1 X89.280 Y53.630 E10.07092
G1 X89.840 Y53.680 E10.09341
G1 X90.390 Y53.770 E10.11570
G1 X90.930 Y53.900 E10.13792
G1 X91.460 Y54.070 E10.16019
G1 X91.980 Y54.280 E10.18262
G1 X92.480 Y54.540 E10.20516
G1 X93.190 Y54.990 E10.23878
G1 X94.040 Y55.710 E10.28334
G1 X94.760 Y56.560 E10.32790
G1 X95.210 Y57.270 E10.36152
G1 X95.470 Y57.770 E10.38407
G1 X95.680 Y58.290 E10.40650
G1 X95.850 Y58.820 E10.42876
G1 X95.980 Y59.360 E10.45098
G1 X96.070 Y59.910 E10.47327
G1 X96.120 Y60.470 E10.49576
G1 X96.120 Y119.530 E12.85816
G1 X96.070 Y120.090 E12.88065
G1 X95.980 Y120.640 E12.90294
G1 X95.850 Y121.180 E12.92516
G1 X95.680 Y121.710 E12.94742
G1 X95.470 Y122.230 E12.96986
G1 X95.210 Y122.730 E12.99240
G1 X94.760 Y123.440 E13.02602
G1 X94.040 Y124.290 E13.07058
G1 X93.190 Y125.010 E13.11514
G1 X92.480 Y125.460 E13.14876
G1 X91.980 Y125.720 E13.17130
G1 X91.460 Y125.930 E13.19374
G1 X90.930 Y126.100 E13.21600
G1 X90.390 Y126.230 E13.23822
G1 X89.840 Y126.320 E13.26051
G1 X89.280 Y126.370 E13.28300
G1 X70.720 Y126.370 E14.02540
G1 X69.890 Y126.280 E14.05879
G1 X69.340 Y126.170 E14.08123
G1 X68.800 Y126.020 E14.10365
G1 X68.020 Y125.720 E14.13708
G1 X67.280 Y125.320 E14.17072
G1 X66.810 Y125.010 E14.19324
G1 X66.590 Y124.840 E14.20437
G1 X65.960 Y124.290 E14.23782
G1 X65.240 Y123.440 E14.28238
G1 X64.790 Y122.730 E14.31600
G1 X64.530 Y122.230 E14.33854
G1 X64.320 Y121.710 E14.36097
G1 X64.150 Y121.180 E14.38324
G1 X64.020 Y120.640 E14.40546
G1 X63.930 Y120.090 E14.42775
G1 X63.880 Y119.530 E14.45024
G1 X63.880 Y60.470 E16.81264
G1 X63.930 Y59.910 E16.83513
G1 X64.020 Y59.360 E16.85742
G1 X64.150 Y58.820 E16.87964
G1 X64.320 Y58.290 E16.90190
G1 X64.530 Y57.770 E16.92433
G1 X64.790 Y57.270 E16.94687
G1 X65.080 Y56.790 E16.96931
G1 X65.345 Y56.424 E16.98739
G1 X65.940 Y56.810 F7800.000
G1 X66.460 Y56.210 F900.000 E17.01915
G1 X66.850 Y55.860 E17.04011
G1 X67.270 Y55.530 E17.06147
G1 X67.950 Y55.110 E17.09344
G1 X68.420 Y54.880 E17.11437
G1 X69.170 Y54.600 E17.14640
G1 X69.940 Y54.420 E17.17803
G1 X70.470 Y54.360 E17.19936
G1 X70.730 Y54.340 E17.20979
G1 X89.270 Y54.340 E17.95139
G1 X90.060 Y54.420 E17.98315
G1 X90.570 Y54.530 E18.00402
G1 X91.080 Y54.680 E18.02529
G1 X91.820 Y54.990 E18.05738
G1 X92.280 Y55.240 E18.07832
G1 X92.730 Y55.530 E18.09974
G1 X93.150 Y55.860 E18.12110
G1 X93.540 Y56.210 E18.14206
G1 X93.890 Y56.600 E18.16302
G1 X94.220 Y57.020 E18.18439
G1 X94.510 Y57.470 E18.20580
G1 X94.760 Y57.930 E18.22674
G1 X95.070 Y58.670 E18.25884
G1 X95.220 Y59.180 E18.28010
G1 X95.330 Y59.690 E18.30097
G1 X95.410 Y60.480 E18.33273
G1 X95.410 Y119.520 E20.69433
G1 X95.330 Y120.310 E20.72609
G1 X95.220 Y120.820 E20.74696
G1 X95.070 Y121.330 E20.76823
G1 X94.760 Y122.070 E20.80032
G1 X94.510 Y122.530 E20.82126
G1 X94.220 Y122.980 E20.84267
G1 X93.890 Y123.400 E20.86404
G1 X93.540 Y123.790 E20.88500
G1 X93.150 Y124.140 E20.90596
G1 X92.730 Y124.470 E20.92733
G1 X92.280 Y124.760 E20.94874
G1 X91.820 Y125.010 E20.96968
G1 X91.080 Y125.320 E21.00178
G1 X90.570 Y125.470 E21.02304
G1 X90.060 Y125.580 E21.04391
G1 X89.270 Y125.660 E21.07567
G1 X70.730 Y125.660 E21.81727
G1 X69.940 Y125.580 E21.84903
G1 X69.430 Y125.470 E21.86990
G1 X68.920 Y125.320 E21.89116
G1 X68.180 Y125.010 E21.92326
G1 X67.490 Y124.620 E21.95496
G1 X66.850 Y124.140 E21.98696
G1 X66.460 Y123.790 E22.00792
G1 X66.110 Y123.400 E22.02888
G1 X65.780 Y122.980 E22.05025
G1 X65.490 Y122.530 E22.07166
G1 X65.240 Y122.070 E22.09260
G1 X64.930 Y121.330 E22.12470
G1 X64.780 Y120.820 E22.14596
G1 X64.670 Y120.310 E22.16683
G1 X64.590 Y119.520 E22.19859
G1 X64.590 Y60.480 E24.56019
G1 X64.670 Y59.690 E24.59195
G1 X64.780 Y59.180 E24.61282
G1 X64.930 Y58.670 E24.63409
G1 X65.130 Y58.170 E24.65563
G1 X65.360 Y57.700 E24.67656
G1 X65.630 Y57.240 E24.69789
G1 X65.876 Y56.894 E24.71486
G1 X66.470 Y57.280 F7800.000
G1 X66.960 Y56.710 F900.000 E24.74492
G1 X67.330 Y56.380 E24.76475
G1 X67.930 Y55.940 E24.79452
G1 X68.360 Y55.690 E24.81441
G1 X68.820 Y55.480 E24.83464
G1 X69.280 Y55.310 E24.85425
G1 X69.760 Y55.180 E24.87415
G1 X70.500 Y55.060 E24.90413
G1 X71.000 Y55.040 E24.92415
G1 X89.000 Y55.040 E25.64415
G1 X89.500 Y55.060 E25.66417
G1 X90.240 Y55.180 E25.69415
G1 X90.950 Y55.390 E25.72377
G1 X91.640 Y55.690 E25.75386
G1 X92.070 Y55.940 E25.77376
G1 X92.470 Y56.220 E25.79329
G1 X93.040 Y56.710 E25.82336
G1 X93.530 Y57.280 E25.85342
G1 X93.810 Y57.680 E25.87295
G1 X94.060 Y58.110 E25.89285
G1 X94.360 Y58.800 E25.92295
G1 X94.510 Y59.270 E25.94268
G1 X94.620 Y59.760 E25.96277
G1 X94.690 Y60.250 E25.98257
G1 X94.710 Y60.750 E26.00258
G1 X94.710 Y119.250 E28.34258
G1 X94.690 Y119.750 E28.36260
G1 X94.570 Y120.490 E28.39259
G1 X94.360 Y121.200 E28.42220
G1 X94.060 Y121.890 E28.45230
G1 X93.810 Y122.320 E28.47219
G1 X93.530 Y122.720 E28.49172
G1 X93.040 Y123.290 E28.52179
G1 X92.470 Y123.780 E28.55186
G1 X92.070 Y124.060 E28.57139
G1 X91.640 Y124.310 E28.59128
G1 X90.950 Y124.610 E28.62138
G1 X90.480 Y124.760 E28.64111
G1 X89.990 Y124.870 E28.66120
G1 X89.500 Y124.940 E28.68100
G1 X89.000 Y124.960 E28.70102
G1 X71.000 Y124.960 E29.42102
G1 X70.500 Y124.940 E29.44103
G1 X70.260 Y124.910 E29.45071
G1 X69.760 Y124.820 E29.47103
G1 X69.280 Y124.690 E29.49092
G1 X68.590 Y124.420 E29.52056
G1 X68.360 Y124.310 E29.53076
G1 X67.930 Y124.060 E29.55065
G1 X67.330 Y123.620 E29.58041
G1 X67.140 Y123.460 E29.59035
G1 X66.790 Y123.110 E29.61015
G1 X66.470 Y122.720 E29.63033
G1 X66.190 Y122.320 E29.64986
G1 X65.940 Y121.890 E29.66975
G1 X65.640 Y121.200 E29.69985
G1 X65.490 Y120.730 E29.71958
G1 X65.380 Y120.240 E29.73967
G1 X65.310 Y119.750 E29.75947
G1 X65.290 Y119.250 E29.77949
G1 X65.290 Y60.750 E32.11949
G1 X65.310 Y60.250 E32.13950
G1 X65.340 Y60.010 E32.14918
G1 X65.430 Y59.510 E32.16950
G1 X65.560 Y59.030 E32.18939
G1 X65.730 Y58.570 E32.20901
G1 X65.940 Y58.110 E32.22923
G1 X66.190 Y57.680 E32.24913
G1 X66.409 Y57.367 E32.26442
G1 F900.000 E31.26442
G1 Z0.800
G92 E0
G1 X72.060 Y61.810 F7800.000
G1 Z0.400
G1 F900.000 E1.00000
G1 X87.940 Y61.810 F900.000 E1.63518
G1 X87.940 Y118.190 E3.89035
G1 X72.060 Y118.190 E4.52553
G1 X72.060 Y101.310 E5.20071
G1 X80.060 Y101.310 E5.52071
G1 X80.060 Y78.690 E6.42553
G1 X72.060 Y78.690 E6.74553
G1 X72.060 Y61.916 E7.41647
G1 X71.353 Y61.103 F7800.000
G1 X88.647 Y61.103 F630.000 E8.10819
G1 X88.647 Y118.897 E10.41992
G1 X71.353 Y118.897 E11.11164
G1 X71.353 Y100.603 E11.84337
G1 X79.353 Y100.603 E12.16337
G1 X79.353 Y79.397 E13.01164
G1 X71.353 Y79.397 E13.33164
G1 X71.353 Y61.209 E14.05913
G1 X71.966 Y61.457 F7800.000
G1 X72.573 Y70.537
G1 X80.213 Y78.177 F900.000 E14.49279
G1 X79.210 Y78.177 E14.53304
G1 X72.573 Y71.540 E14.90977
G1 X72.573 Y72.543 E14.95003
G1 X78.207 Y78.177 E15.26983
G1 X77.204 Y78.177 E15.31009
G1 X72.573 Y73.546 E15.57296
G1 X72.573 Y74.549 E15.61322
G1 X76.201 Y78.177 E15.81917
G1 X75.198 Y78.177 E15.85942
G1 X72.573 Y75.552 E16.00845
G1 X72.573 Y76.555 E16.04870
G1 X74.195 Y78.177 E16.14080
G1 X73.192 Y78.177 E16.18105
G1 X72.573 Y77.558 E16.21622
G1 X87.427 Y62.323 F7800.000
G1 X87.427 Y63.326 F900.000 E16.25648
G1 X86.424 Y62.323 E16.31342
G1 X85.421 Y62.323 E16.35367
G1 X87.427 Y64.329 E16.46754
G1 X87.427 Y65.332 E16.50779
G1 X84.418 Y62.323 E16.67858
G1 X83.415 Y62.323 E16.71883
G1 X87.427 Y66.335 E16.94655
G1 X87.427 Y67.338 E16.98680
G1 X82.412 Y62.323 E17.27145
G1 X81.409 Y62.323 E17.31170
G1 X87.427 Y68.341 E17.65327
G1 X87.427 Y69.344 E17.69353
G1 X80.406 Y62.323 E18.09202
G1 X79.403 Y62.323 E18.13228
G1 X87.427 Y70.347 E18.58770
G1 X87.427 Y71.350 E18.62796
G1 X78.400 Y62.323 E19.14031
G1 X77.397 Y62.323 E19.18056
G1 X87.427 Y72.353 E19.74984
G1 X87.427 Y73.356 E19.79009
G1 X76.394 Y62.323 E20.41630
G1 X75.391 Y62.323 E20.45655
G1 X87.427 Y74.359 E21.13969
G1 X87.427 Y75.362 E21.17994
G1 X74.388 Y62.323 E21.92000
G1 X73.385 Y62.323 E21.96025
G1 X87.427 Y76.365 E22.75724
G1 X87.427 Y77.368 E22.79749
G1 X72.573 Y62.513 E23.64061
G1 X72.573 Y63.516 E23.68086
G1 X87.427 Y78.371 E24.52398
G1 X87.427 Y79.374 E24.56423
G1 X72.573 Y64.519 E25.40735
G1 X72.573 Y65.522 E25.44760
G1 X87.427 Y80.377 E26.29072
G1 X87.427 Y81.380 E26.33097
G1 X72.573 Y66.525 E27.17409
G1 X72.573 Y67.528 E27.21434
G1 X87.427 Y82.383 E28.05746
G1 X87.427 Y83.386 E28.09771
G1 X72.573 Y68.531 E28.94082
G1 X72.573 Y69.534 E28.98108
G1 X87.427 Y84.389 E29.82419
G1 X87.427 Y85.391 E29.86445
G1 X80.573 Y78.537 E30.25350
G1 X80.573 Y79.540 E30.29376
G1 X87.427 Y86.394 E30.68281
G1 X87.427 Y87.397 E30.72307
G1 X80.573 Y80.543 E31.11212
G1 X80.573 Y81.546 E31.15238
G1 X87.427 Y88.400 E31.54143
G1 X87.427 Y89.403 E31.58169
G1 X80.573 Y82.549 E31.97074
G1 X80.573 Y83.552 E32.01100
G1 X87.427 Y90.406 E32.40005
G1 X87.427 Y91.409 E32.44031
G1 X80.573 Y84.555 E32.82936
G1 X80.573 Y85.558 E32.86962
G1 X87.427 Y92.412 E33.25867
G1 X87.427 Y93.415 E33.29892
G1 X80.573 Y86.561 E33.68798
G1 X80.573 Y87.564 E33.72823
G1 X87.427 Y94.418 E34.11729
G1 X87.427 Y95.421 E34.15754
G1 X80.573 Y88.567 E34.54660
G1 X80.573 Y89.570 E34.58685
G1 X87.427 Y96.424 E34.97591
G1 X87.427 Y97.427 E35.01616
G1 X80.573 Y90.573 E35.40522
G1 X80.573 Y91.576 E35.44547
G1 X87.427 Y98.430 E35.83453
G1 X87.427 Y99.433 E35.87478
G1 X80.573 Y92.579 E36.26384
G1 X80.573 Y93.582 E36.30409
G1 X87.427 Y100.436 E36.69315
G1 X87.427 Y101.439 E36.73340
G1 X80.573 Y94.585 E37.12246
G1 X80.573 Y95.588 E37.16271
G1 X87.427 Y102.442 E37.55177
G1 X87.427 Y103.445 E37.59202
G1 X80.573 Y96.591 E37.98108
G1 X80.573 Y97.594 E38.02133
G1 X87.427 Y104.448 E38.41039
G1 X87.427 Y105.451 E38.45064
G1 X80.573 Y98.597 E38.83970
G1 X80.573 Y99.600 E38.87995
G1 X87.427 Y106.454 E39.26901
G1 X87.427 Y107.457 E39.30926
G1 X80.573 Y100.602 E39.69832
G1 X80.573 Y101.605 E39.73857
G1 X87.427 Y108.460 E40.12763
G1 X87.427 Y109.463 E40.16788
G1 X79.787 Y101.823 E40.60154
G1 X78.784 Y101.823 E40.64179
G1 X87.427 Y110.466 E41.13238
G1 X87.427 Y111.469 E41.17263
G1 X77.781 Y101.823 E41.72014
G1 X76.778 Y101.823 E41.76039
G1 X87.427 Y112.472 E42.36483
G1 X87.427 Y113.475 E42.40509
G1 X75.775 Y101.823 E43.06645
G1 X74.772 Y101.823 E43.10670
G1 X87.427 Y114.478 E43.82500
G1 X87.427 Y115.481 E43.86525
G1 X73.769 Y101.823 E44.64047
G1 X72.766 Y101.823 E44.68072
G1 X87.427 Y116.484 E45.51287
G1 X87.427 Y117.487 E45.55312
G1 X72.573 Y102.632 E46.39624
G1 X72.573 Y103.635 E46.43649
G1 X86.615 Y117.677 E47.23348
G1 X85.612 Y117.677 E47.27373
G1 X72.573 Y104.638 E48.01380
G1 X72.573 Y105.641 E48.05405
G1 X84.609 Y117.677 E48.73718
G1 X83.606 Y117.677 E48.77744
G1 X72.573 Y106.644 E49.40364
G1 X72.573 Y107.647 E49.44390
G1 X82.603 Y117.677 E50.01318
G1 X81.600 Y117.677 E50.05343
G1 X72.573 Y108.650 E50.56579
G1 X72.573 Y109.653 E50.60604
G1 X80.597 Y117.677 E51.06147
G1 X79.594 Y117.677 E51.10172
G1 X72.573 Y110.656 E51.50022
G1 X72.573 Y111.659 E51.54047
G1 X78.591 Y117.677 E51.88205
G1 X77.588 Y117.677 E51.92230
G1 X72.573 Y112.662 E52.20695
G1 X72.573 Y113.665 E52.24720
G1 X76.585 Y117.677 E52.47492
G1 X75.582 Y117.677 E52.51517
G1 X72.573 Y114.668 E52.68596
G1 X72.573 Y115.671 E52.72622
G1 X74.579 Y117.677 E52.84008
G1 X73.576 Y117.677 E52.88034
G1 X72.573 Y116.674 E52.93728
G1 X72.573 Y117.677 E52.97754
M104 S165 ; set temperature
M140 S55 ; set bed temperature
G1 F900.000 E51.97754
G1 Z1.200
G92 E0
G1 X72.060 Y118.190 F7800.000
G1 Z0.800
G1 F900.000 E1.00000
G1 X72.060 Y101.310 F3000.000 E1.67518
G1 X80.060 Y101.310 E1.99518
G1 X80.060 Y78.690 E2.90000
G1 X72.060 Y78.690 E3.22000
G1 X72.060 Y61.810 E3.89518
G1 X87.940 Y61.810 E4.53035
G1 X87.940 Y118.190 E6.78553
G1 X72.166 Y118.190 E7.41647
G1 X71.353 Y118.897 F7800.000
G1 X71.353 Y100.603 F2100.000 E8.14819
G1 X79.353 Y100.603 E8.46819
G1 X79.353 Y79.397 E9.31647
G1 X71.353 Y79.397 E9.63647
G1 X71.353 Y61.103 E10.36819
G1 X88.647 Y61.103 E11.05992
G1 X88.647 Y118.897 E13.37164
G1 X71.459 Y118.897 E14.05913
G1 X71.707 Y118.284 F7800.000
G1 X72.573 Y108.460
G1 X79.210 Y101.823 F3000.000 E14.43586
G1 X78.207 Y101.823 E14.47611
G1 X72.573 Y107.457 E14.79592
G1 X72.573 Y106.454 E14.83617
G1 X77.204 Y101.823 E15.09905
G1 X76.201 Y101.823 E15.13930
G1 X72.573 Y105.451 E15.34525
G1 X72.573 Y104.448 E15.38550
G1 X75.198 Y101.823 E15.53453
G1 X74.195 Y101.823 E15.57478
G1 X72.573 Y103.445 E15.66687
G1 X72.573 Y102.442 E15.70713
G1 X73.192 Y101.823 E15.74230
G1 X80.213 Y101.823 F7800.000
G1 X72.573 Y109.463 F3000.000 E16.17595
G1 X72.573 Y110.466 E16.21621
G1 X87.427 Y95.611 E17.05932
G1 X87.427 Y96.614 E17.09958
G1 X72.573 Y111.469 E17.94269
G1 X72.573 Y112.472 E17.98295
G1 X87.427 Y97.617 E18.82606
G1 X87.427 Y98.620 E18.86632
G1 X72.573 Y113.475 E19.70943
G1 X72.573 Y114.478 E19.74968
